**harm	**harte	**timestamp	**phrase	**leadinstrument	**kern
*M4/4	*M4/4	*	*	*	*
*F:	*F:	*	*	*	*F:
1r;	N	0	.	r	1r;
=1	=1	=1	=1	=1	=1
*>A_intro	*>A_intro	*>A_intro	*>A_intro	*>A_intro	*>A_intro
1vi	D:1	1.831	newline	r	1D 1f 1a
=2	=2	=2	=2	=2	=2
1ii	G:1	3.685	.	r	1G 1b- 1dd
=3	=3	=3	=3	=3	=3
1vi	D:1	5.538	.	r	1D 1f 1a
=4	=4	=4	=4	=4	=4
1IV	B-:1	7.392	.	r	1B- 1dd 1ff
1r;	N	9.246	.	r	1r;
=5	=5	=5	=5	=5	=5
*>B_interlude	*>B_interlude	*>B_interlude	*>B_interlude	*>B_interlude	*>B_interlude
1I	F:maj	11.099	newline	r	1F 1a 1cc
=6	=6	=6	=6	=6	=6
1ii	G:min	12.945	.	r	1G 1b- 1dd
=7	=7	=7	=7	=7	=7
*>C_verse	*>C_verse	*>C_verse	*>C_verse	*>C_verse	*>C_verse
1I	F:maj	14.791	newline	voice	1F 1a 1cc
=8	=8	=8	=8	=8	=8
1ii	G:min	16.593	.	voice	1G 1b- 1dd
=9	=9	=9	=9	=9	=9
1I	F:maj	18.395	.	voice	1F 1a 1cc
=10	=10	=10	=10	=10	=10
1IV	B-:maj	20.197	.	voice	1B- 1dd 1ff
=11	=11	=11	=11	=11	=11
1I	F:maj	21.998	newline	voice	1F 1a 1cc
=12	=12	=12	=12	=12	=12
1IV	B-:maj	23.79	.	voice	1B- 1dd 1ff
=13	=13	=13	=13	=13	=13
1-VII	E-:maj	25.581	.	voice	1E- 1g 1b-
=14	=14	=14	=14	=14	=14
1III	A:maj	27.373	.	voice	1A 1cc# 1ee
=15	=15	=15	=15	=15	=15
*>D_verse	*>D_verse	*>D_verse	*>D_verse	*>D_verse	*>D_verse
1vi	D:min	29.164	newline	voice	1D 1f 1a
=16	=16	=16	=16	=16	=16
1ii	G:min	30.946	.	voice	1G 1b- 1dd
=17	=17	=17	=17	=17	=17
1vi	D:min	32.729	.	voice	1D 1f 1a
=18	=18	=18	=18	=18	=18
1IV	B-:maj	34.511	.	voice	1B- 1dd 1ff
=19	=19	=19	=19	=19	=19
1I	F:maj	36.293	newline	voice	1F 1a 1cc
=20	=20	=20	=20	=20	=20
2ii	G:min	38.023	.	voice	2G 2b- 2dd
2V	C:maj	38.888	.	voice	2C 2e 2g
=21	=21	=21	=21	=21	=21
1I	F:maj	39.753	.	voice	1F 1a 1cc
=22	=22	=22	=22	=22	=22
1ii	G:min	41.482	.	voice	1G 1b- 1dd
=23	=23	=23	=23	=23	=23
*>C_verse	*>C_verse	*>C_verse	*>C_verse	*>C_verse	*>C_verse
1I	F:maj	43.212	newline	voice	1F 1a 1cc
=24	=24	=24	=24	=24	=24
1ii	G:min	44.962	.	voice	1G 1b- 1dd
=25	=25	=25	=25	=25	=25
1I	F:maj	46.711	.	voice	1F 1a 1cc
=26	=26	=26	=26	=26	=26
1IV	B-:maj	48.46	.	voice	1B- 1dd 1ff
=27	=27	=27	=27	=27	=27
1I	F:maj	50.209	newline	voice	1F 1a 1cc
=28	=28	=28	=28	=28	=28
1IV	B-:maj	51.931	.	voice	1B- 1dd 1ff
=29	=29	=29	=29	=29	=29
1-VII	E-:maj	53.654	.	voice	1E- 1g 1b-
=30	=30	=30	=30	=30	=30
1III	A:maj	55.376	.	voice	1A 1cc# 1ee
=31	=31	=31	=31	=31	=31
*>D2_verse	*>D2_verse	*>D2_verse	*>D2_verse	*>D2_verse	*>D2_verse
1vi	D:min	57.098	newline	voice	1D 1f 1a
=32	=32	=32	=32	=32	=32
1ii	G:min	58.828	.	voice	1G 1b- 1dd
=33	=33	=33	=33	=33	=33
1vi	D:min	60.558	.	voice	1D 1f 1a
=34	=34	=34	=34	=34	=34
1IV	B-:maj	62.288	.	voice	1B- 1dd 1ff
=35	=35	=35	=35	=35	=35
1I	F:maj	64.017	newline	voice	1F 1a 1cc
=36	=36	=36	=36	=36	=36
2ii	G:min	65.771	.	voice	2G 2b- 2dd
2V	C:maj	66.647	.	voice	2C 2e 2g
=37	=37	=37	=37	=37	=37
1I	F:maj	67.524	.	voice	1F 1a 1cc
=38	=38	=38	=38	=38	=38
1-VII	E-:maj	69.277	.	voice	1E- 1g 1b-
=39	=39	=39	=39	=39	=39
*>D3_solo	*>D3_solo	*>D3_solo	*>D3_solo	*>D3_solo	*>D3_solo
1vi	D:min	71.03	newline	voice synthesizer	1D 1f 1a
=40	=40	=40	=40	=40	=40
1ii	G:min	72.748	.	voice synthesizer	1G 1b- 1dd
=41	=41	=41	=41	=41	=41
1vi	D:min	74.466	.	voice synthesizer	1D 1f 1a
=42	=42	=42	=42	=42	=42
1IV	B-:maj	76.185	.	voice synthesizer	1B- 1dd 1ff
=43	=43	=43	=43	=43	=43
1I	F:maj	77.903	newline	synthesizer	1F 1a 1cc
=44	=44	=44	=44	=44	=44
1vi	D:min	79.655	.	synthesizer	1D 1f 1a
=45	=45	=45	=45	=45	=45
1ii	G:min	81.408	.	synthesizer	1G 1b- 1dd
=46	=46	=46	=46	=46	=46
1V	C:maj	83.16	.	synthesizer	1C 1e 1g
=47	=47	=47	=47	=47	=47
*>C_verse	*>C_verse	*>C_verse	*>C_verse	*>C_verse	*>C_verse
1I	F:maj	84.913	newline	voice	1F 1a 1cc
=48	=48	=48	=48	=48	=48
1ii	G:min	86.643	.	voice	1G 1b- 1dd
=49	=49	=49	=49	=49	=49
1I	F:maj	88.374	.	voice	1F 1a 1cc
=50	=50	=50	=50	=50	=50
1IV	B-:maj	90.104	.	voice	1B- 1dd 1ff
=51	=51	=51	=51	=51	=51
1I	F:maj	91.835	newline	voice	1F 1a 1cc
=52	=52	=52	=52	=52	=52
1IV	B-:maj	93.571	.	voice	1B- 1dd 1ff
=53	=53	=53	=53	=53	=53
1-VII	E-:maj	95.306	.	voice	1E- 1g 1b-
=54	=54	=54	=54	=54	=54
1III	A:maj	97.042	.	voice	1A 1cc# 1ee
=55	=55	=55	=55	=55	=55
*>D4_verse	*>D4_verse	*>D4_verse	*>D4_verse	*>D4_verse	*>D4_verse
1vi	D:min	98.778	newline	voice	1D 1f 1a
=56	=56	=56	=56	=56	=56
1ii	G:min	100.49	.	voice	1G 1b- 1dd
=57	=57	=57	=57	=57	=57
1vi	D:min	102.203	.	voice	1D 1f 1a
=58	=58	=58	=58	=58	=58
1IV	B-:maj	103.915	.	voice	1B- 1dd 1ff
=59	=59	=59	=59	=59	=59
1I	F:maj	105.628	newline	voice	1F 1a 1cc
=60	=60	=60	=60	=60	=60
2ii	G:min	107.375	.	voice	2G 2b- 2dd
2V	C:maj	108.249	.	voice	2C 2e 2g
=61	=61	=61	=61	=61	=61
1I	F:maj	109.123	.	voice	1F 1a 1cc
=62	=62	=62	=62	=62	=62
1I	F:maj	110.87	.	voice	1F 1a 1cc
=63	=63	=63	=63	=63	=63
*>B_interlude	*>B_interlude	*>B_interlude	*>B_interlude	*>B_interlude	*>B_interlude
1I	F:maj	112.618	newline	voice	1F 1a 1cc
=64	=64	=64	=64	=64	=64
1ii	G:min	114.369	.	voice	1G 1b- 1dd
=65	=65	=65	=65	=65	=65
*>C2_outro	*>C2_outro	*>C2_outro	*>C2_outro	*>C2_outro	*>C2_outro
1I	F:maj	116.121	newline	voice	1F 1a 1cc
=66	=66	=66	=66	=66	=66
1ii	G:min	117.912	.	voice	1G 1b- 1dd
=67	=67	=67	=67	=67	=67
1I	F:maj	119.704	.	voice	1F 1a 1cc
=68	=68	=68	=68	=68	=68
1IV	B-:maj	121.495	.	voice	1B- 1dd 1ff
=69	=69	=69	=69	=69	=69
1I	F:maj	123.287	newline	voice fadeout	1F 1a 1cc
=70	=70	=70	=70	=70	=70
1ii	G:min	124.739	.	voice fadeout	1G 1b- 1dd
=71	=71	=71	=71	=71	=71
1I	F:maj	126.192	.	voice fadeout	1F 1a 1cc
=72	=72	=72	=72	=72	=72
1IV	B-:maj	127.645	.	voice fadeout	1B- 1dd 1ff
=73	=73	=73	=73	=73	=73
1I	F:maj	129.097	.	voice fadeout	1F 1a 1cc
=74	=74	=74	=74	=74	=74
1ii	G:min	130.55	.	voice fadeout	1G 1b- 1dd
=75	=75	=75	=75	=75	=75
1I	F:maj	132.003	.	voice fadeout	1F 1a 1cc
=76	=76	=76	=76	=76	=76
1IV	B-:maj	133.455	.	voice fadeout	1B- 1dd 1ff
1r;	N	134.908	.	r	1r;
1r;	N	139.024	.	r	1r;
*-	*-	*-	*-	*-	*-
!!!OTL: Wendy
!!!COC: The Beach Boys
!!!BillboardChartDate: 1964/11/21
!!!BillboardPeak: 44
!!!BillboardWeeksOnChart: 6
!!!SampleTargetRank: 56
!!!SampleActualRank: 56
!!!SampleID#: 0479
!!!RDF**harmony: **recip + pitch class of root + harmonic quality
!!!RDF**harte: Chris Harte's syntax, used by MIREX
!!!RDF**phrase: newline = linebreak in original McGill transcription
!!!RDF**timestamp: McGill audio timestamp in seconds
!!!RDF**leadinstrument: original McGill primary instrumentation annotation
!!!RDT: 2017/01/12/
!!!ENC: Nathaniel Condit-Schultz
!!!EST: Awating manual error checking and editing.
